X:1
T:title
M:4/4
Q:120
L:1/8
R:Reel
K:C
B4g2 _A _g |  _G2 ^e'4 _fe' | c ^f3 _b'a' _G _g' |  _f'f'3 _B _f3 |  ^E2B2 ^b'D ^c ^a' |  ^E4 ^C2b2 |  _f3 ^d'c'2 _c' _e' |  ^b2 _C2c3 _g | 